src/assets/img/icons/dark/icon-different-circle.svg

<svg width="44" height="45" viewBox="0 0 44 45" fill="none" xmlns="http://www.w3.org/2000/svg">
<path d="M16.2515 25.3732C16.2515 21.6615 18.6058 18.5126 21.8703 17.4022C21.0551 17.1249 20.1833 16.9744 19.277 16.9744C14.7415 16.9744 11.0648 20.7347 11.0648 25.3732C11.0648 30.0117 14.7415 33.772 19.277 33.772C20.1833 33.772 21.0551 33.6215 21.8703 33.3442C18.6058 32.2338 16.2515 29.0848 16.2515 25.3732Z" fill="#565656"/>
<path d="M19.277 35.5403C13.7955 35.5403 9.33593 30.9794 9.33593 25.3733C9.33593 19.7672 13.7955 15.2063 19.277 15.2063C24.7585 15.2063 29.2181 19.7672 29.2181 25.3733C29.2181 30.9794 24.7585 35.5403 19.277 35.5403ZM19.277 18.7426C15.7021 18.7426 12.7937 21.7171 12.7937 25.3733C12.7937 29.0294 15.7021 32.0039 19.277 32.0039C22.8519 32.0039 25.7603 29.0294 25.7603 25.3733C25.7603 21.7171 22.8519 18.7426 19.277 18.7426ZM23.7721 2.21022C23.7721 3.43087 24.7397 4.42043 25.9332 4.42043C27.1267 4.42043 28.0943 3.43087 28.0943 2.21022C28.0943 0.989558 27.1267 0 25.9332 0C24.7397 0 23.7721 0.989558 23.7721 2.21022ZM15.4735 2.47544C15.4735 3.6961 16.441 4.68566 17.6346 4.68566C18.8281 4.68566 19.7957 3.6961 19.7957 2.47544C19.7957 1.25478 18.8281 0.265226 17.6346 0.265226C16.441 0.265226 15.4735 1.25478 15.4735 2.47544ZM7.77994 6.1886C7.77994 7.40926 8.74751 8.39882 9.94104 8.39882C11.1346 8.39882 12.1021 7.40926 12.1021 6.1886C12.1021 4.96795 11.1346 3.97839 9.94104 3.97839C8.74751 3.97839 7.77994 4.96795 7.77994 6.1886ZM2.33397 12.7308C2.33397 13.9515 3.30154 14.9411 4.49507 14.9411C5.6886 14.9411 6.65617 13.9515 6.65617 12.7308C6.65617 11.5102 5.6886 10.5206 4.49507 10.5206C3.30154 10.5206 2.33397 11.5102 2.33397 12.7308ZM0.0864258 21.0413C0.0864258 22.2619 1.05399 23.2515 2.24753 23.2515C3.44106 23.2515 4.40863 22.2619 4.40863 21.0413C4.40863 19.8206 3.44106 18.831 2.24753 18.831C1.05399 18.831 0.0864258 19.8206 0.0864258 21.0413ZM1.29664 29.6169C1.29664 30.8376 2.26421 31.8271 3.45774 31.8271C4.65127 31.8271 5.61884 30.8376 5.61884 29.6169C5.61884 28.3962 4.65127 27.4067 3.45774 27.4067C2.26421 27.4067 1.29664 28.3962 1.29664 29.6169ZM5.87817 36.8664C5.87817 38.0871 6.84574 39.0766 8.03927 39.0766C9.23281 39.0766 10.2004 38.0871 10.2004 36.8664C10.2004 35.6457 9.23281 34.6562 8.03927 34.6562C6.84574 34.6562 5.87817 35.6457 5.87817 36.8664ZM12.9666 41.5521C12.9666 42.7727 13.9342 43.7623 15.1277 43.7623C16.3212 43.7623 17.2888 42.7727 17.2888 41.5521C17.2888 40.3314 16.3212 39.3418 15.1277 39.3418C13.9342 39.3418 12.9666 40.3314 12.9666 41.5521ZM21.2652 42.7898C21.2652 44.0104 22.2328 45 23.4263 45C24.6198 45 25.5874 44.0104 25.5874 42.7898C25.5874 41.5691 24.6198 40.5796 23.4263 40.5796C22.2328 40.5796 21.2652 41.5691 21.2652 42.7898ZM29.4774 40.4027C29.4774 41.6234 30.445 42.613 31.6385 42.613C32.832 42.613 33.7996 41.6234 33.7996 40.4027C33.7996 39.1821 32.832 38.1925 31.6385 38.1925C30.445 38.1925 29.4774 39.1821 29.4774 40.4027ZM35.8742 34.833C35.8742 36.0537 36.8418 37.0432 38.0353 37.0432C39.2289 37.0432 40.1964 36.0537 40.1964 34.833C40.1964 33.6123 39.2289 32.6228 38.0353 32.6228C36.8418 32.6228 35.8742 33.6123 35.8742 34.833ZM39.5049 27.053C39.5049 28.2737 40.4725 29.2633 41.666 29.2633C42.8595 29.2633 43.8271 28.2737 43.8271 27.053C43.8271 25.8324 42.8595 24.8428 41.666 24.8428C40.4725 24.8428 39.5049 25.8324 39.5049 27.053ZM39.5913 18.389C39.5913 19.6097 40.5589 20.5992 41.7524 20.5992C42.946 20.5992 43.9135 19.6097 43.9135 18.389C43.9135 17.1683 42.946 16.1788 41.7524 16.1788C40.5589 16.1788 39.5913 17.1683 39.5913 18.389Z" fill="white"/>
<path d="M36.6523 13.7918C33.3157 13.7918 30.6012 11.0156 30.6012 7.60316C30.6012 4.19076 33.3157 1.41455 36.6523 1.41455C39.9888 1.41455 42.7034 4.19076 42.7034 7.60316C42.7034 11.0156 39.9888 13.7918 36.6523 13.7918ZM36.6523 4.9509C35.2223 4.9509 34.059 6.1407 34.059 7.60316C34.059 9.06561 35.2223 10.2554 36.6523 10.2554C38.0822 10.2554 39.2456 9.06561 39.2456 7.60316C39.2456 6.1407 38.0822 4.9509 36.6523 4.9509Z" fill="#D34214"/>
</svg>

<svg xmlns="http://www.w3.org/2000/svg" width="44" height="45" fill="none"><path fill="#565656" d="M16.25 25.37a8.39 8.39 0 015.62-7.97 8.04 8.04 0 00-2.6-.43 8.3 8.3 0 00-8.2 8.4 8.3 8.3 0 008.2 8.4c.91 0 1.79-.15 2.6-.43a8.39 8.39 0 01-5.62-7.97z"/><path fill="#fff" d="M19.28 35.54c-5.48 0-9.94-4.56-9.94-10.17 0-5.6 4.46-10.16 9.94-10.16 5.48 0 9.94 4.56 9.94 10.16 0 5.6-4.46 10.17-9.94 10.17zm0-16.8a6.57 6.57 0 00-6.49 6.63c0 3.66 2.91 6.63 6.49 6.63a6.57 6.57 0 006.48-6.63c0-3.65-2.9-6.63-6.48-6.63zm4.5-16.53c0 1.22.96 2.21 2.15 2.21 1.2 0 2.16-.99 2.16-2.21S27.13 0 25.93 0c-1.19 0-2.16.99-2.16 2.21zm-8.3.27c0 1.22.96 2.2 2.15 2.2 1.2 0 2.17-.98 2.17-2.2 0-1.23-.97-2.21-2.17-2.21-1.19 0-2.16.98-2.16 2.2zm-7.7 3.7c0 1.23.97 2.22 2.16 2.22 1.2 0 2.16-1 2.16-2.21 0-1.22-.97-2.21-2.16-2.21-1.2 0-2.16.99-2.16 2.2zm-5.45 6.55c0 1.22.97 2.21 2.17 2.21 1.19 0 2.16-.99 2.16-2.2 0-1.23-.97-2.22-2.16-2.22-1.2 0-2.17.99-2.17 2.21zM.1 21.04c0 1.22.96 2.21 2.16 2.21 1.2 0 2.16-.99 2.16-2.2 0-1.23-.97-2.22-2.16-2.22-1.2 0-2.16 1-2.16 2.21zm1.2 8.58c0 1.22.97 2.2 2.17 2.2s2.16-.98 2.16-2.2c0-1.22-.97-2.21-2.16-2.21-1.2 0-2.16.99-2.16 2.2zm4.59 7.25c0 1.22.97 2.2 2.16 2.2 1.2 0 2.16-.98 2.16-2.2 0-1.22-.97-2.21-2.16-2.21-1.2 0-2.16.99-2.16 2.2zm7.09 4.68c0 1.22.96 2.21 2.16 2.21 1.2 0 2.16-.99 2.16-2.2 0-1.23-.97-2.22-2.16-2.22-1.2 0-2.16 1-2.16 2.21zm8.3 1.24c0 1.22.96 2.21 2.16 2.21 1.19 0 2.16-.99 2.16-2.21s-.97-2.21-2.16-2.21c-1.2 0-2.16.99-2.16 2.21zm8.2-2.39c0 1.22.98 2.21 2.17 2.21 1.2 0 2.16-.99 2.16-2.2 0-1.23-.97-2.22-2.16-2.22-1.2 0-2.16 1-2.16 2.21zm6.4-5.57c0 1.22.97 2.21 2.17 2.21 1.19 0 2.16-.99 2.16-2.2 0-1.23-.97-2.22-2.16-2.22-1.2 0-2.17 1-2.17 2.21zm3.63-7.78c0 1.22.97 2.21 2.17 2.21 1.19 0 2.16-.99 2.16-2.2 0-1.23-.97-2.22-2.16-2.22-1.2 0-2.17 1-2.17 2.21zm.1-8.66c0 1.22.96 2.2 2.15 2.2 1.2 0 2.16-.98 2.16-2.2 0-1.22-.96-2.21-2.16-2.21-1.2 0-2.16.99-2.16 2.2z"/><path fill="#D34214" d="M36.65 13.8a6.13 6.13 0 01-6.05-6.2 6.13 6.13 0 016.05-6.19 6.13 6.13 0 016.05 6.2 6.13 6.13 0 01-6.05 6.18zm0-8.85a2.63 2.63 0 00-2.6 2.65 2.63 2.63 0 002.6 2.66c1.43 0 2.6-1.2 2.6-2.66a2.63 2.63 0 00-2.6-2.65z"/></svg>
